svgs/sharp-solid/arrow-down-from-dotted-line.svg

<svg xmlns="http://www.w3.org/2000/svg" viewBox="0 0 448 512"><!--! Font Awesome Pro 6.6.0 by @fontawesome - https://fontawesome.com License - https://fontawesome.com/license (Commercial License) Copyright 2024 Fonticons, Inc. --><path d="M64 32l0 64L0 96 0 32l64 0zm96 0l0 64L96 96l0-64 64 0zm32 0l64 0 0 64-64 0 0-64zm160 0l0 64-64 0 0-64 64 0zm32 0l64 0 0 64-64 0 0-64zM246.6 454.6L224 477.3l-22.6-22.6-128-128L50.7 304 96 258.7l22.6 22.6L192 354.7 192 192l0-32 64 0 0 32 0 162.7 73.4-73.4L352 258.7 397.3 304l-22.6 22.6-128 128z"/></svg>

<svg xmlns="http://www.w3.org/2000/svg" viewBox="0 0 448 512"><!--! Font Awesome Pro 6.4.0 by @fontawesome - https://fontawesome.com License - https://fontawesome.com/license (Commercial License) Copyright 2023 Fonticons, Inc. --><path d="M64 32V96H0V32H64zm96 0V96H96V32h64zm32 0h64V96H192V32zm160 0V96H288V32h64zm32 0h64V96H384V32zM246.6 454.6L224 477.3l-22.6-22.6-128-128L50.7 304 96 258.7l22.6 22.6L192 354.7V192 160h64v32V354.7l73.4-73.4L352 258.7 397.3 304l-22.6 22.6-128 128z"/></svg>
